X:1
T:Don't Cry For Me Argentina
T:Don't Cry For Me Argentina
T:Andrew Loyd Webber
T:Tim Rice
T:1976
C:Andrew Loyd Webber
Z:Tim Rice
Z:1976
%%score { 1 | 2 }
L:1/8
Q:1/4=95
M:4/4
K:C
V:1 treble nm="Piano" snm="Pno."
V:2 bass 
V:1
!mf!"^PIANO ACCORDION" [EG] [EG]2 [EG]2 |: [EG] [EG]2 [EG] [EG]2 [Gc]2 | [CA]4 z2 [CA][CA] | %3
 [CA]2 [CA][CA] [CA]2 [CA][CA] | [B,G]4 z2 DE | (3[A,F]2 [A,F]2 [A,F]2 [A,F]2 [A,F][A,F] | %6
 [DF]2 [CE][B,D] [CE]4- | [CE] z2 [CE] [CE]2 [EG]2 | [CA]4 [CE]4 | (3[CE]2 [CE]2 [CE]2 [CE]2 EG | %10
 [DG]2 [D^F][DF] [DF]3 [G,E] | (3[CE]2 [CD]2 [CD]2 [CD]2 [B,D][CE] | D6 D2 | %13
[Q:1/4=90] (3[A,D]2 [A,D]2 [A,D]2[Q:1/4=85] (3[CA]2 [DG]2 [D^F]2 |[Q:1/4=80] [B,D]6 z2 || %15
!mp![Q:1/4=95] (3[CE]2 [CE]2 [CE]2 (3[CE]2 [DF]2 [EG]2 | [FA]2 [EG]-[EG] z2 [EG]2 | %17
 [FA] [FA]2 [EG] [Ec]3 [EG] | [DF]2 [CE]3 [CE][DF][EG] | [B,D] [B,D]3 z [B,D][CE][DF] | %20
 [A,C] [A,C]3 z [A,C][A,D][A,C] |1 [CE] [EG]3 z G,G,G, | A,C- C4 z2 | z3!mf! [EG] [EG]2 [EG]2 :|2 %24
 [CE] [EG]3 z[Q:1/4=90] G,G,G, |[Q:1/4=85] A,2 C4 D2 |[Q:1/4=80] C2 z2!mf! !fermata![CEGc]4 |] %27
V:2
 z2 z2 z |:"C" [C,C] [C,C]2 [C,C] [C,C]2 [C,C]2 |"F" F,,3 F, C,2 [F,,F,]2 | %3
 [F,,F,]2 [F,,F,][F,,F,] [F,,F,]2 C,F, |"G7" G,,3 G, D,2 G,,2 | G,,6 G,2 |"C" C,6 G,2 | C,6 G,2 | %8
"Am" A,,6 E,2 |"C" A,,6 A,2 |"D" D,6 A,,2 | D,,6 D,2 |"G" G,,3 G, D,2 G,,2 |"D7" D,,6 A,,2 | %14
"G" [G,,G,]6 z2 ||"C" C,,2 C,2 G,,2 C,2 | C,,2 C,,G,, C,2 G,,2 | C,,2 C,2 G,,2 C,2 | %18
 C,,2 C,,G,, C,2 G,,2 |"G" G,,2 G,,D, G,2 D,2 |"Am" A,,2 A,,E, A,2 E,2 |1"C" C,,2 C,,G,, C,2 G,,2 | %22
"F" F,,2 F,,C, F,2 C,2 |"C" [C,,C,]2 z z z4 :|2"C" C,,2 C,,G,, C,2 G,,2 | %25
"F" F,,2 A,,2 C,2 [D,,D,]2 |"C" [C,,C,]2 z2 !fermata![C,,C,]4 |] %27

